Newaita/actions/24/object-order-raise.svg

<svg height="24" viewBox="0 0 24 24" width="24" xmlns="http://www.w3.org/2000/svg"><g fill="#424242"><path d="m11.410156 5.148438h9.925782c.273437 0 .496093-.222657.496093-.496094v-.992188c0-.273437-.222656-.496094-.496093-.496094h-9.925782c-.273437 0-.496094.222657-.496094.496094v.992188c0 .273437.222657.496094.496094.496094zm0 0"/><path d="m11.410156 21.523438h9.925782c.273437 0 .496093-.222657.496093-.496094v-.996094c0-.273438-.222656-.496094-.496093-.496094h-9.925782c-.273437 0-.496094.222656-.496094.496094v.996094c0 .273437.222657.496094.496094.496094zm0 0"/><path d="m11.410156 16.0625h9.925782c.273437 0 .496093-.21875.496093-.496094v-.992187c0-.273438-.222656-.496094-.496093-.496094h-9.925782c-.273437 0-.496094.222656-.496094.496094v.992187c0 .277344.222657.496094.496094.496094zm0 0"/><path d="m2.480469 10.605469h18.855469c.273437 0 .496093-.222657.496093-.496094v-.992187c0-.273438-.222656-.496094-.496093-.496094h-18.855469c-.273438 0-.496094.222656-.496094.496094v.992187c0 .273437.222656.496094.496094.496094zm0 0"/><path d="m4.464844 16.0625h1.984375v4.949219c0 .277343-.21875.496093-.496094.496093h-.992187c-.273438 0-.496094-.21875-.496094-.496093zm0 0"/><path d="m8.929688 18.046875h-6.945313l3.472656-4.960937zm0 0"/></g></svg>

<?xml version="1.0" encoding="UTF-8"?>
<svg xmlns="http://www.w3.org/2000/svg" xmlns:xlink="http://www.w3.org/1999/xlink" width="24px" height="24px" viewBox="0 0 24 24" version="1.1">
<g id="surface1">
<path style=" stroke:none;fill-rule:nonzero;fill:rgb(25.882354%,25.882354%,25.882354%);fill-opacity:1;" d="M 11.410156 5.148438 L 21.335938 5.148438 C 21.609375 5.148438 21.832031 4.925781 21.832031 4.652344 L 21.832031 3.660156 C 21.832031 3.386719 21.609375 3.164062 21.335938 3.164062 L 11.410156 3.164062 C 11.136719 3.164062 10.914062 3.386719 10.914062 3.660156 L 10.914062 4.652344 C 10.914062 4.925781 11.136719 5.148438 11.410156 5.148438 Z M 11.410156 5.148438 "/>
<path style=" stroke:none;fill-rule:nonzero;fill:rgb(25.882354%,25.882354%,25.882354%);fill-opacity:1;" d="M 11.410156 21.523438 L 21.335938 21.523438 C 21.609375 21.523438 21.832031 21.300781 21.832031 21.027344 L 21.832031 20.03125 C 21.832031 19.757812 21.609375 19.535156 21.335938 19.535156 L 11.410156 19.535156 C 11.136719 19.535156 10.914062 19.757812 10.914062 20.03125 L 10.914062 21.027344 C 10.914062 21.300781 11.136719 21.523438 11.410156 21.523438 Z M 11.410156 21.523438 "/>
<path style=" stroke:none;fill-rule:nonzero;fill:rgb(25.882354%,25.882354%,25.882354%);fill-opacity:1;" d="M 11.410156 16.0625 L 21.335938 16.0625 C 21.609375 16.0625 21.832031 15.84375 21.832031 15.566406 L 21.832031 14.574219 C 21.832031 14.300781 21.609375 14.078125 21.335938 14.078125 L 11.410156 14.078125 C 11.136719 14.078125 10.914062 14.300781 10.914062 14.574219 L 10.914062 15.566406 C 10.914062 15.84375 11.136719 16.0625 11.410156 16.0625 Z M 11.410156 16.0625 "/>
<path style=" stroke:none;fill-rule:nonzero;fill:rgb(25.882354%,25.882354%,25.882354%);fill-opacity:1;" d="M 2.480469 10.605469 L 21.335938 10.605469 C 21.609375 10.605469 21.832031 10.382812 21.832031 10.109375 L 21.832031 9.117188 C 21.832031 8.84375 21.609375 8.621094 21.335938 8.621094 L 2.480469 8.621094 C 2.207031 8.621094 1.984375 8.84375 1.984375 9.117188 L 1.984375 10.109375 C 1.984375 10.382812 2.207031 10.605469 2.480469 10.605469 Z M 2.480469 10.605469 "/>
<path style=" stroke:none;fill-rule:nonzero;fill:rgb(25.882354%,25.882354%,25.882354%);fill-opacity:1;" d="M 4.464844 16.0625 L 6.449219 16.0625 L 6.449219 21.011719 C 6.449219 21.289062 6.230469 21.507812 5.953125 21.507812 L 4.960938 21.507812 C 4.6875 21.507812 4.464844 21.289062 4.464844 21.011719 Z M 4.464844 16.0625 "/>
<path style=" stroke:none;fill-rule:nonzero;fill:rgb(25.882354%,25.882354%,25.882354%);fill-opacity:1;" d="M 8.929688 18.046875 L 1.984375 18.046875 L 5.457031 13.085938 Z M 8.929688 18.046875 "/>
</g>
</svg>
